packages/ckeditor5-icons/theme/icons/bulb.svg

<svg viewBox="0 0 20 20" xmlns="http://www.w3.org/2000/svg">
<path d="M11.9092 18.2549C12.2817 18.2936 12.5733 18.6129 12.5733 19.001C12.5731 19.3889 12.2816 19.7085 11.9092 19.7471L11.8341 19.751H8.3815C7.97339 19.751 7.64253 19.415 7.64227 19.001C7.64227 18.5868 7.97323 18.251 8.3815 18.251H11.8341L11.9092 18.2549Z"/>
<path fill-rule="evenodd" clip-rule="evenodd" d="M10.1044 3.75195C10.9105 3.75195 11.6944 3.94543 12.5185 4.2998L12.9227 4.48535C13.8363 4.93735 14.5436 5.5112 15.0519 6.25586C15.63 7.10286 15.9038 8.10408 16.0019 9.24609L16.0163 9.50391C16.0473 10.7637 15.4792 11.563 14.92 12.2256C14.3583 12.8912 13.8695 13.3775 13.5975 14.1611L13.5455 14.3223C13.3408 15.0197 13.1484 16.0265 13.0411 16.6357C12.9287 17.2738 12.3824 17.75 11.733 17.75H8.47583C7.82667 17.7497 7.28008 17.2737 7.16774 16.6357C7.08727 16.1788 6.95897 15.4984 6.81353 14.8926L6.66433 14.3223C6.40568 13.4414 5.88824 12.9358 5.28887 12.2256C4.69256 11.5189 4.08595 10.6565 4.20698 9.24609L4.25222 8.82422C4.37834 7.85605 4.65217 6.99698 5.15797 6.25586C5.73883 5.40493 6.57984 4.77788 7.69136 4.2998L7.99841 4.17383C8.71123 3.89956 9.39931 3.75204 10.1044 3.75195ZM10.1044 5.25195C9.61242 5.25204 9.10268 5.35362 8.52203 5.57715L8.26792 5.68066C7.34122 6.07929 6.75536 6.55109 6.37365 7.11035C6.03728 7.60326 5.82282 8.21678 5.71816 9.01953L5.67966 9.37598C5.61048 10.1816 5.90391 10.6477 6.41215 11.25C6.91752 11.8489 7.71104 12.6337 8.08119 13.8945L8.16589 14.2021C8.34698 14.8905 8.50414 15.7096 8.60096 16.25H11.6079C11.7196 15.6263 11.9123 14.6314 12.1286 13.8945L12.2028 13.6631C12.5966 12.5363 13.323 11.8113 13.7967 11.25C14.2732 10.6853 14.5608 10.2406 14.5379 9.52344L14.5292 9.37598C14.4449 8.39496 14.2207 7.67379 13.8362 7.11035C13.5021 6.6209 13.0116 6.19798 12.273 5.83301L11.941 5.68066C11.2526 5.38471 10.6669 5.25195 10.1044 5.25195Z"/>
<path d="M3.59673 13.6367C3.88544 13.3441 4.35346 13.3439 4.64205 13.6367C4.93029 13.9295 4.93032 14.4045 4.64205 14.6973L3.59192 15.7607L3.53609 15.8125C3.24575 16.0526 2.81718 16.0353 2.54661 15.7607C2.27651 15.4861 2.25975 15.0512 2.49656 14.7568L2.54661 14.7002L3.59673 13.6367Z"/>
<path d="M15.358 13.6367C15.6465 13.3439 16.1146 13.3441 16.4033 13.6367L17.4534 14.7002L17.5034 14.7568C17.7402 15.0512 17.7235 15.4861 17.4534 15.7607C17.1828 16.0353 16.7542 16.0526 16.4639 15.8125L16.4081 15.7607L15.358 14.6973C15.0697 14.4045 15.0697 13.9295 15.358 13.6367Z"/>
<path d="M2.47249 8.25684C2.88075 8.25684 3.21172 8.59262 3.21172 9.00684C3.21146 9.42082 2.88059 9.75683 2.47249 9.75684L0.989227 9.75586L0.914149 9.75195C0.541281 9.71365 0.25 9.39426 0.25 9.00586C0.250244 8.61766 0.541417 8.29803 0.914149 8.25977L0.989227 8.25586L2.47249 8.25684Z"/>
<path d="M19.0858 8.25977C19.4586 8.29803 19.7498 8.61766 19.75 9.00586C19.75 9.39426 19.4587 9.71365 19.0858 9.75195L19.0108 9.75586L17.5275 9.75684C17.1194 9.75683 16.7885 9.42082 16.7883 9.00684C16.7883 8.59262 17.1192 8.25684 17.5275 8.25684L19.0108 8.25586L19.0858 8.25977Z"/>
<path d="M3.33396 2.58105C3.60464 2.30684 4.03324 2.29008 4.32345 2.53027L4.37928 2.58105L5.42748 3.64648C5.7161 3.93938 5.71614 4.41416 5.42748 4.70703C5.13876 4.99933 4.67067 4.99967 4.38216 4.70703L3.33396 3.6416L3.28391 3.58496C3.04709 3.29038 3.06332 2.85564 3.33396 2.58105Z"/>
<path d="M15.6766 2.53027C15.9668 2.29008 16.3954 2.30684 16.666 2.58105C16.9367 2.85564 16.9529 3.29038 16.7161 3.58496L16.666 3.6416L15.6178 4.70703C15.3293 4.99967 14.8612 4.99933 14.5725 4.70703C14.2839 4.41416 14.2839 3.93938 14.5725 3.64648L15.6207 2.58105L15.6766 2.53027Z"/>
<path d="M10.0072 0.250977C10.39 0.250977 10.7048 0.546525 10.7426 0.924805L10.7464 1.00098L10.7474 2.50586C10.7474 2.91974 10.417 3.25533 10.0091 3.25586C9.60088 3.25586 9.26896 2.92007 9.26895 2.50586L9.26799 1.00098L9.27184 0.924805C9.30954 0.546799 9.62481 0.251471 10.0072 0.250977Z"/>
</svg>

<svg xmlns="http://www.w3.org/2000/svg" viewBox="0 0 20 20"><path d="M11.91 18.255a.747.747 0 0 1 .663.746.747.747 0 0 1-.664.746l-.075.004H8.382a.745.745 0 0 1-.74-.75c0-.414.331-.75.74-.75h3.452z"/><path fill-rule="evenodd" d="M10.104 3.752c.807 0 1.59.193 2.415.548l.404.185c.913.452 1.62 1.026 2.129 1.77.578.848.852 1.85.95 2.991l.014.258c.031 1.26-.537 2.059-1.096 2.722-.562.665-1.05 1.151-1.322 1.935l-.053.161c-.204.698-.397 1.704-.504 2.314a1.34 1.34 0 0 1-1.308 1.114H8.476c-.65 0-1.196-.476-1.308-1.114a31 31 0 0 0-.354-1.743l-.15-.57c-.258-.882-.776-1.387-1.375-2.097-.596-.707-1.203-1.57-1.082-2.98l.045-.422c.126-.968.4-1.827.906-2.568.58-.851 1.422-1.478 2.533-1.956l.307-.126c.713-.274 1.401-.422 2.106-.422m0 1.5c-.492 0-1.001.102-1.582.325l-.254.104c-.927.398-1.513.87-1.894 1.43-.337.492-.551 1.106-.656 1.909l-.038.356c-.07.806.224 1.272.732 1.874.506.599 1.299 1.384 1.67 2.645l.084.307c.181.688.338 1.508.435 2.048h3.007c.112-.624.304-1.619.52-2.355l.075-.232c.394-1.127 1.12-1.852 1.594-2.413.476-.565.764-1.01.74-1.727l-.008-.147c-.084-.981-.308-1.702-.693-2.266-.334-.49-.824-.912-1.563-1.277l-.332-.152c-.688-.296-1.274-.43-1.837-.43" clip-rule="evenodd"/><path d="M3.597 13.637a.73.73 0 0 1 1.045 0 .76.76 0 0 1 0 1.06l-1.05 1.064-.056.052a.73.73 0 0 1-.99-.052.76.76 0 0 1-.05-1.004l.05-.057zm11.761 0a.73.73 0 0 1 1.045 0l1.05 1.063.05.057c.237.294.22.73-.05 1.004a.73.73 0 0 1-.99.052l-.055-.052-1.05-1.064a.76.76 0 0 1 0-1.06M2.472 8.257c.409 0 .74.336.74.75s-.331.75-.74.75L.99 9.756l-.075-.004a.746.746 0 0 1-.664-.746c0-.388.291-.708.664-.746l.075-.004zm16.614.003a.747.747 0 0 1 .664.746.746.746 0 0 1-.664.746l-.075.004h-1.483a.745.745 0 0 1-.74-.75c0-.413.331-.75.74-.75h1.483zM3.334 2.581c.27-.274.7-.29.99-.05l.055.05 1.048 1.065a.76.76 0 0 1 0 1.061.73.73 0 0 1-1.045 0L3.334 3.642l-.05-.057a.76.76 0 0 1 .05-1.004m12.343-.051a.73.73 0 0 1 .989.051.76.76 0 0 1 .05 1.004l-.05.057-1.048 1.065a.73.73 0 0 1-1.046 0 .76.76 0 0 1 0-1.06l1.049-1.066zM10.007.251c.383 0 .698.296.736.674l.003.076.001 1.505c0 .414-.33.75-.738.75a.745.745 0 0 1-.74-.75L9.268 1l.004-.076a.745.745 0 0 1 .735-.674"/></svg>
